X:1
T:Trio Sonata No.5 in A minor from "12 Trio Sonatas, Op.4 "
T: Trio Sonata No.5 in A-minor
T:Arcangelo Corelli (1653 — 1713) Arr.ed by : Hans Sitt (1850–1922)
T:from " 12 Trio Sonatas, Op.4 " Transcribed for Recorder Trio in C-minor from IMSLP#299301 PDF File
T:Creative Commons Attribution-NonCommercial-ShareAlike 4.0
T:Creative Commons Attribution-NonCommercial-ShareAlike 4.0
T:Creative Commons Attribution-NonCommercial-ShareAlike 4.0
T:Creative Commons Attribution-NonCommercial-ShareAlike 4.0
T:Creative Commons Attribution-NonCommercial-ShareAlike 4.0
T:Creative Commons Attribution-NonCommercial-ShareAlike 4.0
C:Arcangelo Corelli (1653 — 1713)
C:
Z:Score
Z:Creative Commons Attribution-NonCommercial-ShareAlike 4.0
%%score [ 1 2 3 ] { ( 4 6 7 9 ) | ( 5 8 ) }
L:1/8
Q:1/4=60
M:4/4
K:Eb
V:1 treble nm="Alto Rec." snm="A."
V:2 treble nm="Tenor Rec." snm="T."
V:3 bass nm="Viola da gamba" snm="Vla. d. g."
V:4 treble nm="Harpsichord" snm="Hch."
V:6 treble 
V:7 treble 
V:9 treble 
V:5 bass 
V:8 bass 
V:1
"^Adagio""^1. Preludio" g2 z g a2 z a | g3 c f3 g/f/ | ec a2- ag/f/ g2- | g(c'/e/) (f>g) g4 | %4
 !fermata!z8 | b2 z b c'2 z c' | b3 e a2 f2- | fBeg c2 d2 | e6 e>d | eggg g4- | gd=e^f g4- | %11
 gd'e'c'- c'b =a2 | g4- gc d2 | e2 f2 gb a2 | g2 f2 eg a/g/f/e/ | dga=B c4- | cgaf- fe d2 | %17
 cg(ag) z c'/g/ (ag) | z ga=B c4 | =B8 |][M:4/4]"^2. Allemanda"[Q:1/4=100]"^Allegro" c3 c d3 d | %21
 eG c4 =B2 | cd e4 d2 | e3 e f3 f | g3 b a3 b/a/ | g3 g f3 g/f/ | e3 g a2 g2- | gc f4 e2 | %28
 d4 e2 c2- | c2 =B2 c4 | d4 e2 d2 | c2 c2 =B4 :: e3- e f3- f | gB e4 d2 | ef g4 ^f2 | %35
 g3- g =a3- a | b3- b c'3- c' | d'f b4 =a2 | b2 _a2 (g3 c') | a2 g2 (f3 g/f/) | (e3 f/e/) dG g2- | %41
 gc f2- fe/d/ e2- | ed/c/ d2- dG c2- | c2 =B2 ef g2- | gc f4 e2 | d4 c3 g | a3 (c =B)G c2- | %47
 c2 =B2 c4 |][M:3/4]"^3. Corrente"[Q:3/4=50]"^Vivace" e3 d c2 | g2 c'4 | =b6 | e'3 d' c'2 | %52
 _b2 a4 | g3 a b2 | a3 b g2 | c'3 c' b2 | (ag) f4 | e6 :: g3 a b2 | b2 c'4 | a3 g f2 | _d'2 c'4 | %62
 (b3 c') g2 | (ag) (g3 f) | f6 | ^f6 | g3 =a b2 | (=ag) ^f4 | g6 | e3 d c2 | g2 c'4 | =b6 | %72
 e'3 d' c'2 | b2 a4 | (g3 a) b2 | a2 g4 | f2 e4 | d2 c4 | =B4 g2 | (fe) d4 | c4 c'2 | a2 g4 | %82
 f2 e4 | d2 c4 | =B4 g2 | fe d4 | c6 :| z/8 | %88
[M:2/2]"^4. Gavotta"[Q:1/2=100]"^Allegro" c2 d2 e2 z2 | e2 f2 g2 z2 | g2 c'2 a2 z2 | e2 f2 g4 | %92
 c2 d2 e2 z2 | e2 f2 g2 z2 | g2 c'2 a2 z2 | e2 f2 g4 |: d2 g2 e2 z2 | c2 f2 d2 z2 | b2 g2 c'bag | %99
 f4 e4 | g2 c'2 =a4 | =a2 d'2 =b4 | c'2 g2 _agfe | d4 c4 :| %104
V:2
 e2 z e c2 z c | =BG c4 B2 | c3 e d3 c/=B/ | c3 c =B4 | !fermata!z8 | g2 z g e2 z e | dB e4 d2 | %7
 g3 b f2 fg | a2 (gf) g2 f2 | e2 z2 z =aaa | =a4- ad=e^f | g3 e ^f (g2 f) | g8- | gc d2 e g2 f- | %14
 f e2 e2 c f/e/d/c/ | =B2 z2 z gaB | c3 a =B c2 B | c2 z g (ag) z c'/g/ | (a g) z g- gc'/e/ f>g | %19
 g8 |][M:4/4] z8 | c3 c d3 d | e3 e f3 f | gB e4 d2 | ef g2- gc f2- | fB e2- ed/c/ d2 | dG c4 =B2 | %27
 c3 d =BG c2- | c2 =B2 c4 | d4 e2 c2- | c2 =B2 c2 g2- | g2 f2 g4 :: z8 | e3- e f3- f | %34
 g3- g =a3- a | gc g4 ^f2 | g=a b4 a2 | b3- b c'3- c' | _d'2 (f4 =e2) | f=d e2- ed/c/ d2- | %40
 dG (c4 B2) | (A3 B/A/) (G3 g) | (a3 g/f/) (g3 c) | fe d4 c2 | a3 c =BG c2- | c2 =B2 c2 (g2- | %46
 gc) f4 e2 | d4 c4 |][M:3/4] g3 f e2 | e2 d4 | g6 | g3 f e2 | e2 f4 | (B4 f2) | e3 f d2 | c3 d e2 | %56
 e2 (e3 d) | e6 :: b3 a g2 | g2 g4 | c6 | f2 =e4 | f3 f =e2 | (fc) (=e3 f) | f6 | ^f6 | d4 d'2 | %67
 (c'b) =a4 | g6 | g3 f e2 | d2 c4 | g6 | g3 f e2 | e2 f4 | B4 f2 | e4 d2 | c4 B2 | A4 G2 | F4 E2 | %79
 c2 (c3 =B) | c4 g2 | (c4 =B2) | (c4 _B2) | (A4 G2) | F4 E2 | c2 (c3 =B) | c6 :| z/8 | %88
[M:2/2] e2 =B2 c2 z2 | c2 d2 e2 z2 | b2 g2 c'2 z2 | c2 d2 =B4 | e2 =B2 c2 z2 | c2 d2 e2 z2 | %94
 b2 g2 c'2 z2 | c2 d2 =B4 |: =B2 d2 G2 z2 | =A2 c2 F2 z2 | e2 b2 e4 | e3 d e4 | =e4 f4 | ^f4 g4 | %102
 g2 c2 c'2 c2 | =B4 c4 :| %104
V:3
 C,2 z C, F,2 F,2 | F,2 E,2 D,2 G,2 | C,3 C B,3 A,/G,/ | A,3 A, G,4 | !fermata!z8 | %5
 E,2 z E, A,,2 A,2- | A,2 (G,2 F,2) B,,2 | E,F,G,E, A,2 B,2 | C2 B,A, B,A,B,B,, | E,E D2 C2 ^C2 | %10
 DB,,=C,D, _E,B,,C,D, | E,B,,C,C, D,G,,D,D, | G,C=B,G, C,CB,G, | C,CB,B,, E,ECD | %14
 EG,=A,=B, CE,F,C, | G,E,F,G, A,E,F,G, | A,E,F,(F,, G,,)C,G,G,, | C=E,F,E, F,C,zE, | %18
 F,=E,F,G, A,2 A,,2 | G,,8 |][M:4/4] CEDC =B,=A,B,G, | CC,E,C, F,D,G,G,, | C,E,G,E, A,F,B,B,, | %23
 E,F,G,E, A,F,B,B,, | E,B,(ED C)CDB, | EF(GG, =A,)A,=B,G, | CD(EE, F,)F,,G,,G, | %27
 A,G,A,F, G,2 A,E, | F,D,G,G,, C,CEC | GG,=B,G, CC,E,C, | G,G,,=B,,G,, C,2 [_B,,_B,]2 | A,4 G,4 :: %32
 E,G,F,E, D,C,D,B,, | E,E,G,E, A,F,B,B,, | E,EB,G, C=A,DD, | G,=A,B,G, CA,DD, | G,GDB, ECFF, | %37
 B,CDB, ECFF, | (B,C_D_A, B,)G,CC, | (F,B,CG, A,)F,B,B,, | C,D,E,F, G,A,B,G, | CEDC (=B,G,C)C, | %42
 (F,A,B,)B,, (E,G,A,)A,, | D,F,G,G,, C,D,E,C, | F,G,A,F, G,,G,A,E, | F,D,G,G,, C,D,E,C, | %46
 F,G,A,F, G,,G,A,E, | F,D,G,G,, C,4 |][M:3/4] C,2 G,2 C2 | B,2 A,4 | G,6 | C,2 G,2 C2 | C2 D4 | %53
 E4 D2 | C4 B,2 | A,4 G,2 | A,2 A,2 A,2 | E,6 :: E,6 | E,2 =E,4 | F,,3 G,, A,,2 | B,,2 C,4 | %62
 _D,3 A,, B,,2 | F,2 C2 C,2 | F,2 F2 _E2 | D2 D2 C2 | B,3 =A, G,2 | C,2 D,4 | G,6 | C,2 G,2 C2 | %70
 B,2 A,4 | G,6 | C,2 G,2 C2 | C2 D4 | E4 D2 | C4 B,2 | A,4 G,2 | F,4 E,2 | D,4 C,2- | C,2 G,4 | %80
 C,4 E,2 | F,4 G,2 | A,4 G,2 | F,4 E,2 | D,4 C,2- | C,2 G,2 G,,2 | C,6 :| z/8 | %88
[M:2/2] C,2 z2 .C2 .G,2 | C,4 E2 .B,2 | E,4 F,2 G,2 | A,4 G,4 | C,2 z2 .C2 G,2 | C,4 E2 .B,2 | %94
 E,4 F,2 G,2 | .A,2 .A,,2 G,,4 |: .G,2 z2 .C2 ._B,2 | .=A,4 .B,2 ._A,2 | G,4 .A,2 .E,2 | %99
 .B,2 .B,,2 .E,2 .D,2 | C,4 F,2 ._E,2 | D,4 .G,2 .=F,2 | E,4 F,2 .C,2 | G,2 G,,2 C,4 :| %104
V:4
 z [CE] [EG]2 z [A,CF] [CFA]2 | [DG=B]2 [Cc]4 [DGB]2 | [EGc]2 (A4 G2 | G2 F)c [DG=B]4 | %4
 !fermata!z8 | z [EG] [GB]2 z [CEA] [EAc]2 | [FBd]2 [Ee]4 [FBd]2 | g2 e2 [Fc]f [FBd]2 | %8
 [EAe]2 ef (([Be-g]2 [Bf]2)) | [GBe]2 (Be =A2) =e2 | dd=e^f gdef | gde=A cBA[^FA] | %12
 G3 [G=B] [Gc]edB | [Gce]2 ([_B-df]2 B4- | g2 f2 e c3) | =B c2 B c3 B | c3 [cf-] fe d2 | %17
 c3 G AG z c- | c3 =B [Cc]4 | !fermata![DG=B]8 |][M:4/4] [Ec].G.FE [DGd]2 Gd | %21
 [Ge] z ([Gc]2 [DAc]) z [DG=B] z | [EGc] z [E_Be] z [EFc] z [DFB] z | z2 ([Be-]2 [ce]) z [FBd] z | %24
 [GBe] z (([Be-g]2 [Aea])) z [ABf] z | [Bfg] z (([Be-g]2 [cef])) z [Gdf] z | %26
 [Gde] z (([Gc-e]2 ([Acd])) z [G=Bd]) z | [Gc] z [Fcf] z [F=B] z c2- | c z [DG=B] z [EGc] z ((c2 | %29
 d)) z [Gdg] z [Gce] z c2 | d z [FGd] z [EGc] z [DGd]2 | [Cc]4 [DG=B]4 :: [Ge]_BAG [FBf]2 Bf | %33
 [eg] z [GBe] z [Fce] z [FBd] z | [GBe] z [Bdg] z [=Aeg] z [Ad^f] z | g z z2 [Ge] z [^F^Ad] z | %36
 [GBd] z [Bfb] z [Bcg] z [=Acf] z | defd g z [=Acf] z | z2 _a2 [fg] z [=eg] z | %39
 (a2 g2 [cef]) z f z | [Ge] z [ce] z [cd] z Be | A4 G4 | [Aa]4 [Gg]4 | [Af] z [G=Bd] z G z G z | %44
 [Ac] z [Fcf] z [G=B] z c2- | c2 =B2 c3 g- | g2 f4 e2 | [Acd]2 [=Bd]2 [Gc]4 |] %48
[M:3/4] [EGc]2 z2 [EG]2 | [DG]2 (c2 d2) | d6 | [EGc]2 z2 [Gce]2 | [Beb]2 [Bfa]4 | (g2 e2) f2 | %54
 a4 g2 | g4 e2 | e2 (e3 d) | [Gce]6 :: e4 B2 | [GB]2 c2 g2 | f4 f2 | [G_df]2 [Gc=e]4 | %62
 [Ff]4 [c=e]2 | [Acf]2 [Gc=e]2 z2 | [Gcf]2 z2 [FAc]2 | [^F=Ad]2 z2 [FA]2 | d3 c B2 | e2 =A2 d2 | %68
 [G=B]2 [=Ac]2 [=F=Bd]2 | [Ec]3 [Fd] [Ge]2 | [Gd]2 c2 d2 | d6 | [Ec]3 [Fd] [Ge]2 | [Beb]2 [Bfa]4 | %74
 g2 e2 f2 | a2 g4 | f2 e4 | d2 c4 | =B2 G2 c2 | G2 c3 =B | c2 G2 c2 | A2 c2 =B2 | c4 _B2 | %83
 A2 c2 c2 | [F=B]4 [Gc]2 | z2 c3 =B | [EGc]6 :| z/8 |[M:2/2]!f!"_. ." [EGc]2 z2 [EG]2 .[DG=B]2 | %89
 [EGc]2 z2 .[GB]2 .[Fd]2 | .e.d.c.g [cf]2 e.d | c2 [cd]2 [G=B]4 | [EGc]2 z2 .G.=A.=Bd | %93
 [EGc]2 z2 .B._c.d.f | .e.d.c.g f2 .e.d | c2 [cd]2 [G=B]4 |:!mf! .[GBd]2 z2 .[Gce]2 [EGc]2 | %97
 .[Fc]2 z2 .[FBd]2 .[CFB]2 | [EBe]2 z2!f! [EAc]2 .[GBe]2 | e3 d e4 | %100
!f! .[Gc=e]2 z2 .[F=Ac]2 .[Acf]2 | .[Adf]2 z2 .[GBd]2 .[Bdg]2 | .[Gcg]2 z2 ._A2 [EGc]2 | %103
 .[DG=B]2 .[FGd]2 [EGc]4 :| %104
V:5
 [C,,C,]2 z C, [F,,F,]2 F,2- | F,2 (E,2 D,2) [G,,G,]2 | C,3 [C,C] [_B,,_B,]3 A,/G,/ | %3
 A,3 [A,,A,] [G,,G,]4 | !fermata!z8 | [E,,E,]2 z E, A,,2 A,2- | A,2 (G,2 F,2) B,,2 | %7
 [E,,E,][F,,F,][G,,G,][E,,E,] [A,,A,]2 [B,,B,]2 | %8
 [C,C]2 [B,,B,][A,,A,] [B,,B,][A,,A,][B,,B,][B,,,B,,] | [E,,E,][E,E] [D,D]2 [C,C]2 [^C,^C]2 | %10
 [D,D]B,,=C,D, _E,B,,C,D, | E,B,,C,[C,,C,] [D,,D,]G,,D,[D,,D,] | [G,,G,]C=B,G, C,CB,G, | %13
 C,C_B,B,, E,ECD | EG,=A,=B, CE,F,C, | G,E,F,G, A,[E,,E,][F,,F,][G,,G,] | %16
 [A,,A,]E,F,(F,, G,,)C,G,G,, | C,[=E,,=E,][F,,F,][E,,E,] [F,,F,][C,,C,] z [E,,E,] | %18
 [F,,F,][=E,,=E,][F,,F,][G,,G,] [A,,A,]2 [A,,,A,,]2 | [G,,,G,,]8 |] %20
[M:4/4] .[C,C]E.D.C .=B,.=A,.B,G, | CC,E,C, F,D,G,G,, | C,E,G,E, A,F,B,B,, | E,F,G,E, A,F,B,B,, | %24
 E,B,(ED C)CDB, | EF(GG, =A,)A,=B,G, | CD(EE, F,)F,,G,,G, | A,G,A,F, G,2 A,E, | F,D,G,G,, C,CEC | %29
 GG,=B,G, CC,E,C, | G,G,,=B,,G,, C,2 [_B,,_B,]2 | [A,,A,]4 [G,,G,]4 :: [E,,E,]G,F,E, D,C,D,B,, | %33
 E,E,G,E, A,F,B,B,, | E,EB,G, C=A,DD, | G,=A,B,G, CA,DD, | G,GDB, ECFF, | B,CDB, ECFF, | %38
 (B,C_D_A, B,)G,CC, | (F,B,CG, A,)F,B,B,, | C,D,E,F, G,A,B,G, | CEDC (=B,G,C)C, | %42
 (F,A,B,)B,, (E,G,A,)A,, | D,F,G,G,, C,D,E,C, | F,G,A,F, G,,G,A,E, | F,D,G,G,, C,D,E,C, | %46
 F,G,A,F, G,,G,A,E, | F,D,G,G,, C,4 |][M:3/4] C,2 G,2 C2 | [B,,B,]2 [A,,A,]4 | [G,,G,]6 | %51
 C,2 G,2 C2 | [C,C]2 [D,D]4 | [E,E]4 [D,D]2 | [C,C]4 [B,,B,]2 | [A,,A,]4 [G,,G,]2 | %56
 [A,,A,]2 [B,,B,]2 [B,,,B,,]2 | [E,,E,]6 :: [E,,E,]6 | [E,,E,]2 [=E,,=E,]4 | [F,,F,]3 G,, A,,2 | %61
 B,,2 C,4 | _D,3 A,, B,,2 | [F,,F,]2 C2 C,2 | F,2 F2 _E2 | D2 D2 C2 | B,3 =A, G,2 | C,2 D,4 | %68
 [G,,G,]6 | C,2 G,2 C2 | [B,,B,]2 [A,,A,]4 | [G,,G,]6 | C,2 G,2 C2 | [C,C]2 [D,D]4 | %74
 [E,E]4 [D,D]2 | [C,C]4 [B,,B,]2 | [A,,A,]4 [G,,G,]2 | [F,,F,]4 [E,,E,]2 | [D,,D,]4 [C,,C,]2 | %79
 [C,,C,]2 [G,,G,]4 | C,4 E,2 | F,4 G,2 | A,4 G,2 | F,4 E,2 | D,4 C,2- | C,2 G,2 G,,2 | [C,,C,]6 :| %87
 z/8 |[M:2/2] [C,,C,]2 z2 .[C,C]2 .[G,,G,]2 | [C,,C,]4 [E,E]2 .[B,,B,]2 | %90
 [E,,E,]4 [E,,F,]2 [G,,G,]2 | [A,,A,]4 [G,,G,]4 | C,2 z2 .C2 G,2 | C,4 E2 .B,2 | E,4 F,2 G,2 | %95
 .A,2 .A,,2 G,,4 |: .G,2 z2 .C2 ._B,2 | .=A,4 .B,2 ._A,2 | G,4 .A,2 .E,2 | .B,2 .B,,2 .E,2 .D,2 | %100
 C,4 F,2 ._E,2 | D,4 .G,2 .=F,2 | E,4 F,2 .C,2 | G,2 G,,2 C,4 :| %104
V:6
 x8 | x2 (G2 F2) x2 | x2 (E2 D4 | C3) x5 | x8 | x8 | x2 (B2 [Ac]2) x2 | GABG x4 | x8 | x8 | x8 | %11
 x8 | x8 | x8 | x8 | x8 | x4 =B c2 B | x8 | x8 | x8 |][M:4/4] x8 | x8 | x8 | x8 | x8 | x8 | x8 | %27
 x8 | x8 | x8 | x8 | x8 :: x8 | x8 | x8 | x8 | x8 | x8 | x8 | x8 | x8 | x8 | x8 | x8 | x6 CG | x8 | %46
 x8 | x8 |][M:3/4] x6 | x6 | x6 | x6 | x6 | x6 | x6 | x6 | x6 | x6 :: x6 | x6 | x6 | x6 | x6 | x6 | %64
 x6 | x6 | x6 | x6 | x6 | x6 | x6 | x6 | x6 | x6 | x6 | x6 | x6 | x6 | x6 | x6 | x6 | x6 | x6 | %83
 x6 | x6 | x6 | x6 :| x/4 |[M:2/2] x8 | x8 | x8 | x8 | x8 | x8 | x8 | x8 |: x8 | x8 | x8 | x8 | %100
 x8 | x8 | x8 | x8 :| %104
V:7
 x8 | x8 | x8 | x3 [CF] x4 | x8 | x8 | x8 | x8 | x2 [GB][ce] x2 e>d | x2 G4 =A2 | =Ad=cA GdcA | %11
 G2 x G ^F G2 F | GEDD E G3 | x4 g2 ef | B2 cd G2 _A2 | =BG F2 EG F2 | EGFA G4 | c C2 C- CECG | %18
 AGF[DG] G2 F2 | x8 |][M:4/4] x6 G2 | G x7 | x8 | GABG F x3 | x8 | x8 | x8 | x6 CG | [DA] x5 c2 | %29
 c x7 | c x7 | G2 F2 x4 :: x6 B2 | [Be] x7 | x8 | BcdB ^A x3 | x8 | B4- B x3 | _defc dBc x | %39
 c=d(eB c)A [Bd] x | x6 g2- | g2 f4 e2- | e2 d4 c2- | c x3 [Ge]=Bc x | x8 | AF G2 EFGe | %46
 A_BcA =BG[ce]G | A2 G2 E4 |][M:3/4] x6 | x2 F4 | (=B2 G2 F2) | x6 | x6 | B4 B2 | (A2 e2) d2 | %55
 (c3 d) B2 | c2 A4 | x6 :: [EG]3 [FA] G2 | x2 [Gc]4 | A3 B c2 | x6 | B3 c G2 | x6 | x6 | x6 | G6 | %67
 G2 ^F4 | x6 | x6 | D2 F4 | =B2 G2 F2 | x6 | x6 | B4 B2 | e4 d2 | c4 B2 | A4 G2 | F4 E2 | G2 D4 | %80
 E4 G2 | A2 c2 D2 | C4 E2 | A4 G2 | F2 G2 E2 | G6 | x6 :| x/4 |[M:2/2] x8 | x8 | G4 A2 [G-=B]2 | %91
 G2 F2 D4 | x4 E x D x | x4 .G x F x | G4 [Ac]2 [G-=B]2 | G2 F2 D4 |: x8 | x8 | x8 | %99
 [FB]3 x [GB]4 | x8 | x8 | x8 | x8 :| %104
V:8
 x8 | x8 | x8 | x8 | x8 | x8 | x8 | x8 | x8 | x8 | x8 | x8 | x8 | x8 | x8 | x8 | x8 | x8 | x8 | %19
 x8 |][M:4/4] x8 | x8 | x8 | x8 | x8 | x8 | x8 | x8 | x8 | x8 | x8 | x8 :: x8 | x8 | x8 | x8 | x8 | %37
 x8 | x8 | x8 | x8 | x8 | x8 | x8 | x8 | x8 | x8 | x8 |][M:3/4] C,6 | x6 | x6 | C,6 | x6 | x6 | %54
 x6 | x6 | x6 | x6 :: x6 | x6 | x6 | x6 | x6 | x6 | x6 | x6 | x6 | x6 | x6 | C,6 | x6 | x6 | C,6 | %73
 x6 | x6 | x6 | x6 | x6 | x6 | x6 | x6 | x6 | x6 | x6 | x6 | x6 | x6 :| x/4 |[M:2/2] x8 | x8 | x8 | %91
 x8 | x8 | x8 | x8 | x8 |: x8 | x8 | x8 | x8 | x8 | x8 | x8 | x8 :| %104
V:9
 x8 | x8 | x8 | x8 | x8 | x8 | x8 | x8 | x8 | x8 | x8 | x8 | x8 | x8 | x8 | x8 | x8 | x8 | x8 | %19
 x8 |][M:4/4] x8 | x8 | x8 | x8 | x8 | x8 | x8 | x8 | x8 | x8 | x8 | x8 :: x8 | x8 | x8 | x8 | x8 | %37
 x8 | x8 | x8 | x8 | x8 | x8 | x8 | x8 | x8 | x8 | x8 |][M:3/4] x6 | x6 | x6 | x6 | x6 | x6 | x6 | %55
 x6 | x6 | x6 :: x6 | x6 | x6 | x6 | x6 | x6 | x6 | x6 | x6 | x6 | x6 | x6 | x6 | x6 | x6 | x6 | %74
 x6 | x6 | x6 | x6 | x6 | x6 | x6 | x6 | x6 | x6 | x6 | x2 D4 | x6 :| x/4 |[M:2/2] x8 | x8 | x8 | %91
 x8 | x8 | x8 | x8 | x8 |: x8 | x8 | x8 | x8 | x8 | x8 | x8 | x8 :| %104

